build/bank/Qiwi.svg

<svg xmlns="http://www.w3.org/2000/svg" fill="none" viewBox="0 0 40 40" focusable="false"><path d="M0 0H40V40H0z"/><path fill="#FF8C00" d="M1 12.4C1 10.1598 1 9.03969 1.43597 8.18404C1.81947 7.43139 2.43139 6.81947 3.18404 6.43597C4.03969 6 5.15979 6 7.4 6L32.6 6C34.8402 6 35.9603 6 36.816 6.43597C37.5686 6.81947 38.1805 7.43139 38.564 8.18404C39 9.03969 39 10.1598 39 12.4L39 27.6C39 29.8402 39 30.9603 38.564 31.816C38.1805 32.5686 37.5686 33.1805 36.816 33.564C35.9603 34 34.8402 34 32.6 34L7.4 34C5.15979 34 4.03969 34 3.18404 33.564C2.43139 33.1805 1.81947 32.5686 1.43597 31.816C1 30.9603 1 29.8402 1 27.6L1 12.4Z"/><path fill="#FFF" d="M25.4961 22.8918C25.7565 23.0207 25.8566 23.5226 25.8766 23.7415C25.9168 24.1409 25.8268 24.2955 25.7266 24.2955C25.6264 24.2955 25.4862 24.1409 25.3362 23.832C25.1859 23.5226 25.1259 23.1751 25.2062 22.9946C25.2559 22.8786 25.3658 22.8273 25.4961 22.8918ZM24.2213 24.2955C24.4071 24.2955 24.616 24.381 24.8017 24.5522C25.1613 24.8706 25.2659 25.2377 25.0802 25.507C24.9755 25.6416 24.8017 25.7273 24.6044 25.7273C24.4071 25.7273 24.1983 25.6538 24.0591 25.5192C23.7341 25.2255 23.6414 24.7356 23.8499 24.4666C23.9314 24.3563 24.0591 24.2955 24.2213 24.2955ZM20.2406 27.4075C16.2413 27.4075 13 23.9865 13 19.766C13 15.5456 16.2415 12.125 20.2404 12.125C24.2395 12.125 27.481 15.546 27.481 19.766C27.481 21.1987 27.1022 22.5428 26.4605 23.6869C26.208 21.81 25.0396 20.7543 23.461 20.4437C23.3239 20.4212 23.3029 20.3325 23.4819 20.3104C23.966 20.2659 24.6499 20.2769 25.0078 20.3436C25.0287 20.1548 25.0396 19.9549 25.0396 19.755C25.0396 16.9672 22.8925 14.7012 20.2508 14.7012C17.6095 14.7012 15.4624 16.9672 15.4624 19.755C15.4624 22.5428 17.6095 24.8087 20.2511 24.8087L20.4719 24.8087C20.3969 24.3579 20.3651 23.9001 20.377 23.4424C20.3879 23.1315 20.451 23.0869 20.5772 23.3313C21.2403 24.5419 22.1876 25.6304 24.0396 26.0636C25.555 26.4192 27.0704 26.8299 28.7017 29.0178C28.8489 29.2067 28.6281 29.4065 28.4597 29.2512C26.797 27.6961 25.2816 27.1851 23.9028 27.1851C22.3557 27.1965 21.3037 27.4075 20.2406 27.4075Z"/></svg>

<svg xmlns="http://www.w3.org/2000/svg" fill="none" viewBox="0 0 40 40" focusable="false"><path fill="none" d="M0 0h40v40H0z"/><path fill="#FF8C00" d="M1 12.4c0-2.25 0-3.37.43-4.22a4 4 0 0 1 1.75-1.75C4.03 6 5.15 6 7.4 6h25.19c2.25 0 3.37 0 4.22.43a4 4 0 0 1 1.75 1.75c.44.85.44 1.97.44 4.22v15.2c0 2.24 0 3.36-.44 4.21a4 4 0 0 1-1.75 1.75c-.85.44-1.97.44-4.22.44H7.4c-2.25 0-3.37 0-4.22-.44a4 4 0 0 1-1.75-1.75C1 30.96 1 29.84 1 27.6z"/><path fill="#FFF" d="M25.49 22.89c.26.13.36.63.38.85.04.4-.05.55-.15.55s-.24-.15-.39-.46-.21-.66-.13-.84c.05-.12.16-.17.29-.1m-1.27 1.4c.18 0 .39.09.58.26.36.32.46.68.28.95-.11.14-.28.22-.48.22s-.41-.07-.55-.21c-.32-.29-.41-.78-.21-1.05.09-.11.21-.17.38-.17m-3.98 3.11c-4 0-7.24-3.42-7.24-7.64s3.24-7.64 7.24-7.64c3.99 0 7.24 3.42 7.24 7.64 0 1.43-.38 2.78-1.02 3.92-.26-1.87-1.43-2.93-3-3.24-.14-.02-.16-.11.02-.13.48-.05 1.16-.04 1.52.03.02-.19.03-.39.03-.59 0-2.79-2.14-5.05-4.78-5.05-2.65 0-4.79 2.26-4.79 5.05s2.14 5.05 4.79 5.05h.22c-.08-.45-.11-.9-.1-1.36.01-.31.08-.36.2-.11.67 1.21 1.61 2.3 3.46 2.73 1.52.35 3.04.76 4.67 2.95.14.19-.08.39-.25.24-1.66-1.56-3.17-2.07-4.55-2.07-1.55.01-2.6.22-3.66.22"/></svg>
